Obsidian-SemiLight/actions/22s/mode3.svg

<svg viewBox="0 0 22 22" xmlns="http://www.w3.org/2000/svg"><path d="m3 3v1h7v-1zm9 0v1h7v-1zm-9 3v1h7v-1zm9 0v1h7v-1zm-9 3v1h7v-1zm9 0v1h7v-1zm-9 4v1h7v-1zm8 0v1h2.009766c.26651.00046.528082.071901.757812.207031.12643-.31354.302646-.597645.509766-.859375-.38395-.22687-.821608-.346906-1.267578-.347656zm7.009766 3v1h-1c-.26651-.00046-.528083-.071901-.757813-.207031-.12643.31354-.302646.597645-.509765.859375.38395.22687.821608.346906 1.267578.347656h1v1l2-1.5zm-15.009766 1v1h7v-1z" fill="#4d4d4d"/><path d="m18.009766 12v1h-1c-1.38071-.00001-2.5 1.11928-2.5 2.5 0 .82843-.67157 1.5-1.5 1.5h-2.03125v1h2.03125c1.38071.00001 2.5-1.11928 2.5-2.5 0-.82843.67157-1.5 1.5-1.5h1v1l2-1.5z" fill="#3daee9"/></svg>

<svg xmlns="http://www.w3.org/2000/svg" viewBox="0 0 22 22">
  <defs id="defs3051">
    <style type="text/css" id="current-color-scheme">
      .ColorScheme-Text {
        color:#4d4d4d;
      }
      .ColorScheme-Highlight {
        color:#3daee9;
      }
      </style>
  </defs>
 <path 
     style="fill:currentColor;fill-opacity:1;stroke:none" 
     d="M 3 3 L 3 4 L 10 4 L 10 3 L 3 3 z M 12 3 L 12 4 L 19 4 L 19 3 L 12 3 z M 3 6 L 3 7 L 10 7 L 10 6 L 3 6 z M 12 6 L 12 7 L 19 7 L 19 6 L 12 6 z M 3 9 L 3 10 L 10 10 L 10 9 L 3 9 z M 12 9 L 12 10 L 19 10 L 19 9 L 12 9 z M 3 13 L 3 14 L 10 14 L 10 13 L 3 13 z M 11 13 L 11 14 L 13.009766 14 C 13.276276 14.00046 13.537848 14.071901 13.767578 14.207031 C 13.894008 13.893491 14.070224 13.609386 14.277344 13.347656 C 13.893394 13.120786 13.455736 13.00075 13.009766 13 L 11 13 z M 18.009766 16 L 18.009766 17 L 17.009766 17 C 16.743256 16.99954 16.481683 16.928099 16.251953 16.792969 C 16.125523 17.106509 15.949307 17.390614 15.742188 17.652344 C 16.126138 17.879214 16.563796 17.99925 17.009766 18 L 18.009766 18 L 18.009766 19 L 20.009766 17.5 L 18.009766 16 z M 3 17 L 3 18 L 10 18 L 10 17 L 3 17 z "
     class="ColorScheme-Text"
     />
 <path 
     style="fill:currentColor;fill-opacity:1;stroke:none" 
     d="M 18.009766 12 L 18.009766 13 L 17.009766 13 C 15.629056 12.99999 14.509766 14.11928 14.509766 15.5 C 14.509766 16.32843 13.838196 17 13.009766 17 L 10.978516 17 L 10.978516 18 L 13.009766 18 C 14.390476 18.00001 15.509766 16.88072 15.509766 15.5 C 15.509766 14.67157 16.181336 14 17.009766 14 L 18.009766 14 L 18.009766 15 L 20.009766 13.5 L 18.009766 12 z "
     class="ColorScheme-Highlight"
     />
</svg>
